X: 27610
T: Moolah Rouge
R: slip jig
M: 9/8
K: Gmajor
M:7/8
|:G2 d2 dB/c/d|ee dB AGE|D2 ED GDA|BB GB AGE|
GG d2 dB/c/d|ee dB AGE|GG DG ABA|1 Gz GG edB:|2 Gz GG ABd||
|:ee dB deg|ee dB AGE|D2 ED GDA|BB GB AB/c/d|
ee dB deg|ee dB AGE|GG DG ABA|1 Gz GG ABd:|2 Gz GG edB||

